X:300
M:3/2
L:1/4
K:F
[C2F2] | [F2A2] [Gc] [F2A2] [EG] | [FA] [F=B] [E2c2] [F2d2] | [F2c2] [FA] [E2G2] [CF] | [DF] [CE] [C2F2] [E2G2] | [F2A2] [FA] [E2G2] [Ec] | [Dc] [D=B] [E2c2]  !sintro![C2A2] | [D2B2] [CA] [C2G2] [A,F] | [DF] [CE] [C2F2] !eintro!|]
